!!!SOCIAL_FUNCTION:	moccasin game songs
!!!PDT:	1909
!!!OTL: No_169.krn
!!!REG: Great_Lakes
!!!LANG: Non-Tone
!!!LING_GROUP: Algonquin
**kern	**kern
*staff2	*staff1
=1-	=1-
*clefF4	*clefG2
*k[f#c#]	*k[f#c#]
*M2/4	*M2/4
16GG/LK	4f#/
8GG^/J	.
16r	.
16GG/LK	4a/
8GG^/J	.
16r	.
=2	=2
16GG/LK	4.f#/
8GG^/J	.
16r	.
16GG/LK	.
8GG^/J	.
.	16f#/LL
16r	16f#/JJ
=3	=3
2r	8f#/L
.	16f#/L
.	16e/JJ
.	8d/L
.	8d/J
=4	=4
2r	4f#/
.	4f#/
=5	=5
2r	4d/
.	8B/L
.	8B/J
=6	=6
8F#\L	2r
8d\J	.
8B\L	.
8B\J	.
=7||	=7||
*M3/4	*M3/4
2.B\	2.r
=8	=8
2.r	8.d/L
.	16d/Jk
.	4f#/
.	4d/
=9	=9
4r	8B/L
.	8d/J
8B\L	2r
8A\J	.
4F#\	.
=10||	=10||
*M2/4	*M2/4
16B\LK	2r
8.B\J	.
8B\L	.
8A\J	.
=11	=11
2F#\	2r
=12	=12
8.F#\L	2r
16E\Jk	.
4D\	.
=13	=13
8F#;\L	2r
8E\J	.
4D\	.
=14	=14
8.BB/L	2r
16BB/Jk	.
4BB/	.
=15	=15
2BB/	2r
==	==
*-	*-
